X:384
T:Kim's Game
C:Colin Hume, 1995
L:1/4
M:2/2
S:Colin Hume's website,  colinhume.com  - chords can also be printed below the stave.
Q:1/2=116
K:G
P:A
d | "G"fg "/"fg | "G"d2- "/"dB | "C"^de "C/B"de | "Am"c2 "/"A^A | "G"B^A "/"Bc | "Em"dB "/"AG | "A7"ze- "/"e^c | "D"d2- "D7"dd |
P:B
"G"fg "/"fg | "G"d2- "/"dB | "C"^de "C/B"de | "Am"c2 "/"EF | "Em"GF "/"ED | "Am"CD "/"E3/C/ | "D"^CD "/"CD | "G"G,2- "/"G,G |
P:C
"B7"FF- "/"FG | "B7"A2 "/"GF | "Em"G2 "B7"A2 | "Em"B2- "/"B_B | "D/D"AA- "D/C"A=B | "D7/B"c2 "D7/A"BA | "G/G"B2 "G/F"c2 | "G7/E"d2- "G7/D"dd |
P:D
"C"^de "C/B"de | "Am"c2- "/"cA | "G"^cd "G/F#"cd | "E7"B2 "/"^AB | "Am"cE "/"FG | "D7"B2 "/"B2 | "G"G2-"C"G2- | "G"G2- "D7"G |]
